X:1
T:[ID 2-50a]
T:[ID 2-50a]
T:Bezeichnung standardisiert: Menuett Men\"uet 9.
T:Urheber unbekannt Datum in der hier transkribierten schriftlichen Quelle: 1767
C:Urheber unbekannt
C:Datum in der hier transkribierten schriftlichen Quelle: 1767
L:1/8
M:3/4
K:D
V:1 treble 
V:1
 d4 (3efg | f2 c2 d2 | D4 (3EFG | F2 C2 D2 | f4 dB | e2 ^G2 A2 | (3Bcd c2 B2 |{B} A6 :: A4 (3AB=c | %9
 Bdefga | B4 (3Bcd | cefgab | d4 (3efg | f2 c2 d2 | (3BAG F2 E2 | D6 :| %16

